X: 39681
T: Tenpenny Bit, The
R: jig
M: 6/8
K: Adorian
|:d|eAA eAA|BAB GBd|eAA eAA|def gfg|
eAA eAA|BAB GBd|edB gdB|BAG A2:|
|:d|eaa aga|bab ged|eaa aga|gef g2d|
eaa aga|bab ged|def gdB|BAG A2:|

